X:196
T:Drummond Castle
T:Castle Drummond
S:Various sources
Z:Nigel Gatherer
M:6/8
L:1/8
K:Am
B|A>BA a3|age g2 B|c2 c edc|Bdg dBG|A>BA a3|age g3|
ege deg|edB A2::B|c2c cec|d2 d ded|c2 c edc|
Bdg dBG|c2 c edc|deg a2 g|ege deg|edB A2:|
